X: 1
T: Eamonn Coyne's
M: 4/4
L: 1/8
R: reel
Z: Harry Bradley
K: Gmaj
BcdB GABG | ADFA dcBA | BcdB GABG | ADFA G2 GA :|
|:BGBd gfed | ^cBce agfe | fgaf defd | eA^ce d2 ef | 
gfed ^ceag | fde^c d^cBA | BcdB GABD | ADFA G2 GA :|
